public/piece/Kanji_Guide_Shadowed/0TO.svg

<?xml version="1.0" encoding="UTF-8" standalone="no"?>
<svg
   xmlns:dc="http://purl.org/dc/elements/1.1/"
   xmlns:cc="http://creativecommons.org/ns#"
   xmlns:rdf="http://www.w3.org/1999/02/22-rdf-syntax-ns#"
   xmlns:svg="http://www.w3.org/2000/svg"
   xmlns="http://www.w3.org/2000/svg"
   xmlns:sodipodi="http://sodipodi.sourceforge.net/DTD/sodipodi-0.dtd"
   xmlns:inkscape="http://www.inkscape.org/namespaces/inkscape"
   width="60"
   height="60"
   version="1.1"
   id="svg15864"
   sodipodi:docname="0TO.svg"
   inkscape:version="1.0.1 (3bc2e813f5, 2020-09-07)">
  <metadata
     id="metadata15870">
    <rdf:RDF>
      <cc:Work
         rdf:about="">
        <dc:format>image/svg+xml</dc:format>
        <dc:type
           rdf:resource="http://purl.org/dc/dcmitype/StillImage" />
        <dc:title></dc:title>
      </cc:Work>
    </rdf:RDF>
  </metadata>
  <defs
     id="defs15868" />
  <sodipodi:namedview
     pagecolor="#ffffff"
     bordercolor="#666666"
     borderopacity="1"
     objecttolerance="10"
     gridtolerance="10"
     guidetolerance="10"
     inkscape:pageopacity="0"
     inkscape:pageshadow="2"
     inkscape:window-width="1366"
     inkscape:window-height="711"
     id="namedview15866"
     showgrid="false"
     showguides="false"
     inkscape:zoom="7.8666666"
     inkscape:cx="31.593141"
     inkscape:cy="31.765531"
     inkscape:window-x="0"
     inkscape:window-y="0"
     inkscape:window-maximized="1"
     inkscape:current-layer="g15862"
     inkscape:document-rotation="0" />
  <!--
Created by Hari Seldon and modified by orangain, licensed under Creative Commons Attribution-Share Alike 3.0 Unported.
See: https://creativecommons.org/licenses/by-sa/3.0/deed.en

Original file is available at: https://commons.wikimedia.org/wiki/File:Shogi_tokin(svg).svg
-->
  <filter
     id="drop-shadow">
    <feGaussianBlur
       in="SourceAlpha"
       result="blur"
       stdDeviation="2"
       id="feGaussianBlur15839" />
    <feOffset
       result="offsetBlur"
       dx="2"
       dy="2"
       id="feOffset15841" />
    <feBlend
       in="SourceGraphic"
       in2="offsetBlur"
       mode="normal"
       id="feBlend15843" />
  </filter>
  <g
     filter="url(#drop-shadow)"
     transform="translate(5,5)"
     id="g15862">
    <g
       id="g862"
       transform="translate(4.138)">
      <path
         d="M 7.696,4.672 0.674,49.437 41.05,49.187 34.404,4.547 20.987,0.408 Z"
         fill="#FEEC99"
         id="path15846"
         style="fill:#ffeda5;fill-opacity:1" />
      <path
         d="m 20.839,39.032 c -2.667,-1.408 -3.823,-3.54 -3.825,-7.056 -10e-4,-1.678 0.331,-3.524 0.796,-4.423 0.685,-1.325 0.708,-1.82 0.16,-3.482 -0.481,-1.455 -0.516,-2.689 -0.142,-4.953 0.427,-2.58 0.37,-3.27 -0.4,-4.777 -1.11,-2.177 -0.812,-2.565 0.958,-1.252 2.026,1.504 2.772,4.233 2.14,7.831 -0.285,1.62 -0.429,3.035 -0.32,3.143 0.107,0.108 0.76,-0.174 1.451,-0.626 1.485,-0.973 3.476,-0.82 3.686,0.282 0.095,0.5 -0.744,1.265 -2.343,2.135 -3.163,1.721 -4.002,2.941 -4.002,5.818 0,2.864 1.352,4.758 3.713,5.2 1.846,0.347 3.525,1.836 3.01,2.67 -0.509,0.823 -2.812,0.582 -4.882,-0.51 z"
         fill="#fecfcf"
         id="path15848" />
      <path
         d="m 21.121,39.03 c -1.154,-0.571 -2.55,-1.77 -3.104,-2.665 -1.227,-1.987 -1.34,-5.955 -0.241,-8.582 0.635,-1.52 0.664,-2.216 0.172,-4.136 -0.454,-1.77 -0.457,-2.846 -0.012,-4.61 0.478,-1.9 0.447,-2.62 -0.179,-4.118 -0.916,-2.192 -0.68,-2.556 0.958,-1.483 1.75,1.147 2.395,3.925 1.736,7.486 -0.29,1.573 -0.42,2.967 -0.289,3.098 0.132,0.132 0.805,-0.13 1.495,-0.583 1.377,-0.902 3.356,-0.845 3.669,0.106 0.11,0.332 -1.04,1.396 -2.554,2.365 -3.253,2.08 -3.774,2.905 -3.774,5.974 0,1.886 0.264,2.57 1.452,3.757 0.798,0.798 1.865,1.451 2.372,1.451 0.506,0 1.428,0.355 2.048,0.79 0.894,0.626 1.007,0.934 0.546,1.49 -0.797,0.96 -1.835,0.878 -4.295,-0.34 z"
         fill="#feb0b0"
         id="path15850" />
      <path
         d="m 21.72,39.387 c -0.824,-0.364 -2.248,-1.516 -3.164,-2.56 -1.613,-1.837 -1.658,-2 -1.423,-5.275 0.133,-1.86 0.566,-3.868 0.962,-4.465 0.631,-0.951 0.628,-1.344 -0.029,-3.17 -0.64,-1.78 -0.654,-2.476 -0.098,-4.794 0.575,-2.397 0.553,-2.9 -0.19,-4.335 -0.98,-1.896 -0.774,-2.351 0.66,-1.455 1.692,1.056 2.223,3.077 1.879,7.149 -0.172,2.034 -0.148,3.691 0.053,3.682 0.201,-0.008 0.8,-0.343 1.33,-0.744 1.26,-0.954 3.073,-0.932 3.446,0.042 0.201,0.523 -0.209,1.042 -1.275,1.613 -0.864,0.464 -2.357,1.54 -3.317,2.392 -1.572,1.395 -1.747,1.806 -1.747,4.114 0,3.026 1.22,4.577 4.412,5.614 1.438,0.466 1.986,0.918 1.986,1.635 0,1.232 -1.438,1.462 -3.485,0.557 z"
         fill="#fe8e8e"
         id="path15852" />
      <path
         d="m 21.485,38.963 c -3.267,-1.652 -4.61,-3.912 -4.363,-7.335 0.108,-1.502 0.526,-3.401 0.928,-4.22 0.627,-1.279 0.635,-1.771 0.054,-3.476 -0.549,-1.61 -0.564,-2.52 -0.081,-4.797 0.51,-2.41 0.481,-3.04 -0.21,-4.425 -1.13,-2.266 -0.5,-2.51 1.295,-0.5 1.512,1.693 1.516,1.711 1.206,6.071 l -0.31,4.374 1.607,-0.98 c 2.082,-1.27 3.346,-1.27 3.346,-0.001 0,0.635 -0.66,1.32 -1.862,1.937 -3.152,1.617 -4.345,3.268 -4.345,6.017 0,2.897 1.323,4.58 4.414,5.61 1.437,0.478 2.04,0.96 2.04,1.624 0,1.36 -1.169,1.391 -3.72,0.101 z"
         fill="#fe7070"
         id="path15854" />
      <path
         d="m 21.509,38.963 c -3.27,-1.673 -4.254,-3.304 -4.224,-7 0.016,-1.875 0.35,-3.677 0.861,-4.639 0.766,-1.441 0.77,-1.728 0.06,-3.428 -0.66,-1.579 -0.685,-2.308 -0.17,-4.896 0.526,-2.65 0.498,-3.248 -0.223,-4.64 -0.997,-1.929 -0.425,-2.075 1.223,-0.313 1.11,1.188 1.197,1.643 1.121,5.917 l -0.082,4.63 1.7,-1.003 c 0.935,-0.552 2.034,-0.875 2.441,-0.72 1.395,0.536 0.74,1.744 -1.653,3.047 -3.758,2.045 -5.046,5.346 -3.359,8.608 0.699,1.35 1.536,1.904 4.658,3.08 1.057,0.398 1.583,0.898 1.484,1.41 -0.232,1.207 -1.404,1.191 -3.836,-0.053 z"
         fill="#fe4e4e"
         id="path15856" />
      <path
         d="m 20.438,38.446 c -2.515,-1.68 -3.545,-4.011 -3.197,-7.233 0.157,-1.457 0.614,-3.282 1.013,-4.056 0.641,-1.239 0.638,-1.62 -0.024,-3.205 -0.635,-1.52 -0.657,-2.257 -0.143,-4.747 0.536,-2.596 0.505,-3.166 -0.264,-4.777 l -0.872,-1.83 1.148,0.755 c 2.042,1.344 2.456,2.763 2.114,7.243 l -0.314,4.113 2.014,-1.05 c 1.108,-0.577 2.246,-0.906 2.529,-0.731 1.078,0.666 0.427,1.639 -1.973,2.945 -2.724,1.482 -3.968,3.32 -3.965,5.855 0.002,2.24 1.634,4.765 3.334,5.16 1.716,0.398 3.615,1.554 3.615,2.2 0,0.912 -3.327,0.486 -5.016,-0.642 z"
         fill="#fe2f2f"
         id="path15858" />
      <path
         d="m 20.654,38.55 c -2.47,-1.582 -3.365,-3.315 -3.323,-6.425 0.02,-1.502 0.4,-3.59 0.845,-4.638 0.527,-1.242 0.656,-2.194 0.37,-2.731 -0.653,-1.225 -0.747,-2.982 -0.325,-6.092 0.295,-2.179 0.198,-3.134 -0.446,-4.379 -0.817,-1.58 -0.815,-1.588 0.242,-1.022 1.838,0.984 2.587,3.634 2.198,7.783 l -0.345,3.678 2.08,-1.084 c 1.631,-0.85 2.205,-0.953 2.667,-0.477 0.63,0.65 0.366,0.918 -3.129,3.163 -2.32,1.49 -3.07,3.06 -2.831,5.928 0.23,2.759 1.24,4.073 3.753,4.882 3.308,1.065 4.119,2.442 1.43,2.428 -0.888,-0.004 -2.321,-0.46 -3.185,-1.014 z"
         fill="#fe0505"
         id="path15860" />
      <path
         style="opacity:1;fill:#d38d5f;stroke:none;stroke-width:1px;stroke-linecap:butt;stroke-linejoin:miter;stroke-opacity:1"
         d="M 20.987,0.408 18.379084,1.1518992 21.014728,5.847491 23.548937,1.100192 Z"
         id="path4436"
         inkscape:connector-curvature="0"
         sodipodi:nodetypes="ccccc" />
      <path
         style="opacity:1;fill:#d38d5f;stroke:none;stroke-width:1px;stroke-linecap:butt;stroke-linejoin:miter;stroke-opacity:1"
         d="M 7.696,4.672 7.247822,7.591577 11.814079,9.127605 10.151497,3.9570645 Z"
         id="path4436-9"
         inkscape:connector-curvature="0"
         sodipodi:nodetypes="ccccc" />
      <path
         style="opacity:1;fill:#d38d5f;stroke:none;stroke-width:1px;stroke-linecap:butt;stroke-linejoin:miter;stroke-opacity:1"
         d="m 34.404,4.547 0.44818,2.919577 -4.56626,1.536028 1.579101,-5.25104 z"
         id="path4436-9-4"
         inkscape:connector-curvature="0"
         sodipodi:nodetypes="ccccc" />
      <path
         sodipodi:nodetypes="cccc"
         inkscape:connector-curvature="0"
         id="path6283"
         d="m 36.840386,20.718598 0.765489,5.186979 -5.66907,-2.121884 z"
         style="opacity:1;fill:#d38d5f;stroke:none;stroke-width:1px;stroke-linecap:butt;stroke-linejoin:miter;stroke-opacity:1" />
      <path
         style="opacity:1;fill:#d38d5f;stroke:none;stroke-width:1px;stroke-linecap:butt;stroke-linejoin:miter;stroke-opacity:1"
         d="m 5.0243921,21.507563 -0.7722553,5.053097 5.675832,-2.1469 z"
         id="path4436-9-3"
         inkscape:connector-curvature="0"
         sodipodi:nodetypes="cccc" />
      <path
         style="opacity:1;fill:#d38d5f;stroke:none;stroke-width:1px;stroke-linecap:butt;stroke-linejoin:miter;stroke-opacity:1"
         d="m 18.293421,49.304947 5.137157,0.04277 -2.810648,-5.341756 z"
         id="path4436-9-3-9"
         inkscape:connector-curvature="0"
         sodipodi:nodetypes="cccc" />
    </g>
  </g>
</svg>

<?xml version="1.0" encoding="UTF-8" standalone="no"?>
<svg
   xmlns:dc="http://purl.org/dc/elements/1.1/"
   xmlns:cc="http://creativecommons.org/ns#"
   xmlns:rdf="http://www.w3.org/1999/02/22-rdf-syntax-ns#"
   xmlns:svg="http://www.w3.org/2000/svg"
   xmlns="http://www.w3.org/2000/svg"
   xmlns:sodipodi="http://sodipodi.sourceforge.net/DTD/sodipodi-0.dtd"
   xmlns:inkscape="http://www.inkscape.org/namespaces/inkscape"
   width="51.969"
   height="60"
   version="1.1"
   id="svg15864"
   sodipodi:docname="0TO.svg"
   inkscape:version="0.92.4 (5da689c313, 2019-01-14)">
  <metadata
     id="metadata15870">
    <rdf:RDF>
      <cc:Work
         rdf:about="">
        <dc:format>image/svg+xml</dc:format>
        <dc:type
           rdf:resource="http://purl.org/dc/dcmitype/StillImage" />
        <dc:title />
      </cc:Work>
    </rdf:RDF>
  </metadata>
  <defs
     id="defs15868" />
  <sodipodi:namedview
     pagecolor="#ffffff"
     bordercolor="#666666"
     borderopacity="1"
     objecttolerance="10"
     gridtolerance="10"
     guidetolerance="10"
     inkscape:pageopacity="0"
     inkscape:pageshadow="2"
     inkscape:window-width="1920"
     inkscape:window-height="1017"
     id="namedview15866"
     showgrid="false"
     showguides="false"
     inkscape:zoom="7.8666666"
     inkscape:cx="31.593141"
     inkscape:cy="31.765531"
     inkscape:window-x="1912"
     inkscape:window-y="-8"
     inkscape:window-maximized="1"
     inkscape:current-layer="g15862" />
  <!--
Created by Hari Seldon and modified by orangain, licensed under Creative Commons Attribution-Share Alike 3.0 Unported.
See: https://creativecommons.org/licenses/by-sa/3.0/deed.en

Original file is available at: https://commons.wikimedia.org/wiki/File:Shogi_tokin(svg).svg
-->
  <filter
     id="drop-shadow">
    <feGaussianBlur
       in="SourceAlpha"
       result="blur"
       stdDeviation="2"
       id="feGaussianBlur15839" />
    <feOffset
       result="offsetBlur"
       dx="2"
       dy="2"
       id="feOffset15841" />
    <feBlend
       in="SourceGraphic"
       in2="offsetBlur"
       mode="normal"
       id="feBlend15843" />
  </filter>
  <g
     filter="url(#drop-shadow)"
     transform="translate(5 5)"
     id="g15862">
    <path
       d="M7.696 4.672l-7.022 44.765 40.376 -0.25 -6.646 -44.64 -13.417 -4.139z"
       fill="#FEEC99"
       id="path15846"
       style="fill:#ffeda5;fill-opacity:1" />
    <path
       d="M20.839 39.032C18.172 37.624 17.016 35.492 17.014 31.976 17.013 30.298 17.345 28.452 17.81 27.553 18.495 26.228 18.518 25.733 17.97 24.071 17.489 22.616 17.454 21.382 17.828 19.118 18.255 16.538 18.198 15.848 17.428 14.341 16.318 12.164 16.616 11.776 18.386 13.089 20.412 14.593 21.158 17.322 20.526 20.92 20.241 22.54 20.097 23.955 20.206 24.063 20.313 24.171 20.966 23.889 21.657 23.437 23.142 22.464 25.133 22.617 25.343 23.719 25.438 24.219 24.599 24.984 23 25.854 19.837 27.575 18.998 28.795 18.998 31.672 18.998 34.536 20.35 36.43 22.711 36.872 24.557 37.219 26.236 38.708 25.721 39.542 25.212 40.365 22.909 40.124 20.839 39.032Z"
       fill="#fecfcf"
       id="path15848" />
    <path
       d="M21.121 39.03C19.967 38.459 18.571 37.26 18.017 36.365 16.79 34.378 16.677 30.41 17.776 27.783 18.411 26.263 18.44 25.567 17.948 23.647 17.494 21.877 17.491 20.801 17.936 19.037 18.414 17.137 18.383 16.417 17.757 14.919 16.841 12.727 17.077 12.363 18.715 13.436 20.465 14.583 21.11 17.361 20.451 20.922 20.161 22.495 20.031 23.889 20.162 24.02 20.294 24.152 20.967 23.89 21.657 23.437 23.034 22.535 25.013 22.592 25.326 23.543 25.436 23.875 24.286 24.939 22.772 25.908 19.519 27.988 18.998 28.813 18.998 31.882 18.998 33.768 19.262 34.452 20.45 35.639 21.248 36.437 22.315 37.09 22.822 37.09 23.328 37.09 24.25 37.445 24.87 37.88 25.764 38.506 25.877 38.814 25.416 39.37 24.619 40.33 23.581 40.248 21.121 39.03Z"
       fill="#feb0b0"
       id="path15850" />
    <path
       d="M21.72 39.387C20.896 39.023 19.472 37.871 18.556 36.827 16.943 34.99 16.898 34.827 17.133 31.552 17.266 29.692 17.699 27.684 18.095 27.087 18.726 26.136 18.723 25.743 18.066 23.917 17.426 22.137 17.412 21.441 17.968 19.123 18.543 16.726 18.521 16.223 17.778 14.788 16.798 12.892 17.004 12.437 18.438 13.333 20.13 14.389 20.661 16.41 20.317 20.482 20.145 22.516 20.169 24.173 20.37 24.164 20.571 24.156 21.17 23.821 21.7 23.42 22.96 22.466 24.773 22.488 25.146 23.462 25.347 23.985 24.937 24.504 23.871 25.075 23.007 25.539 21.514 26.615 20.554 27.467 18.982 28.862 18.807 29.273 18.807 31.581 18.807 34.607 20.027 36.158 23.219 37.195 24.657 37.661 25.205 38.113 25.205 38.83 25.205 40.062 23.767 40.292 21.72 39.387Z"
       fill="#fe8e8e"
       id="path15852" />
    <path
       d="M21.485 38.963C18.218 37.311 16.875 35.051 17.122 31.628 17.23 30.126 17.648 28.227 18.05 27.408 18.677 26.129 18.685 25.637 18.104 23.932 17.555 22.322 17.54 21.412 18.023 19.135 18.533 16.725 18.504 16.095 17.813 14.71 16.683 12.444 17.313 12.2 19.108 14.21 20.62 15.903 20.624 15.921 20.314 20.281L20.004 24.655 21.611 23.675C23.693 22.405 24.957 22.405 24.957 23.674 24.957 24.309 24.297 24.994 23.095 25.611 19.943 27.228 18.75 28.879 18.75 31.628 18.75 34.525 20.073 36.208 23.164 37.238 24.601 37.716 25.204 38.198 25.204 38.862 25.204 40.222 24.035 40.253 21.484 38.963Z"
       fill="#fe7070"
       id="path15854" />
    <path
       d="M21.509 38.963C18.239 37.29 17.255 35.659 17.285 31.963 17.301 30.088 17.635 28.286 18.146 27.324 18.912 25.883 18.916 25.596 18.206 23.896 17.546 22.317 17.521 21.588 18.036 19 18.562 16.35 18.534 15.752 17.813 14.36 16.816 12.431 17.388 12.285 19.036 14.047 20.146 15.235 20.233 15.69 20.157 19.964L20.075 24.594 21.775 23.591C22.71 23.039 23.809 22.716 24.216 22.871 25.611 23.407 24.956 24.615 22.563 25.918 18.805 27.963 17.517 31.264 19.204 34.526 19.903 35.876 20.74 36.43 23.862 37.606 24.919 38.004 25.445 38.504 25.346 39.016 25.114 40.223 23.942 40.207 21.51 38.963Z"
       fill="#fe4e4e"
       id="path15856" />
    <path
       d="M20.438 38.446C17.923 36.766 16.893 34.435 17.241 31.213 17.398 29.756 17.855 27.931 18.254 27.157 18.895 25.918 18.892 25.537 18.23 23.952 17.595 22.432 17.573 21.695 18.087 19.205 18.623 16.609 18.592 16.039 17.823 14.428L16.951 12.598 18.099 13.353C20.141 14.697 20.555 16.116 20.213 20.596L19.899 24.709 21.913 23.659C23.021 23.082 24.159 22.753 24.442 22.928 25.52 23.594 24.869 24.567 22.469 25.873 19.745 27.355 18.501 29.193 18.504 31.728 18.506 33.968 20.138 36.493 21.838 36.888 23.554 37.286 25.453 38.442 25.453 39.088 25.453 40 22.126 39.574 20.437 38.446Z"
       fill="#fe2f2f"
       id="path15858" />
    <path
       d="M20.654 38.55C18.184 36.968 17.289 35.235 17.331 32.125 17.351 30.623 17.731 28.535 18.176 27.487 18.703 26.245 18.832 25.293 18.546 24.756 17.893 23.531 17.799 21.774 18.221 18.664 18.516 16.485 18.419 15.53 17.775 14.285 16.958 12.705 16.96 12.697 18.017 13.263 19.855 14.247 20.604 16.897 20.215 21.046L19.87 24.724 21.95 23.64C23.581 22.79 24.155 22.687 24.617 23.163 25.247 23.813 24.983 24.081 21.488 26.326 19.168 27.816 18.418 29.386 18.657 32.254 18.887 35.013 19.897 36.327 22.41 37.136 25.718 38.201 26.529 39.578 23.84 39.564 22.952 39.56 21.519 39.104 20.655 38.55Z"
       fill="#fe0505"
       id="path15860" />
    <path
       style="opacity:1;fill:#d38d5f;stroke:none;stroke-width:1px;stroke-linecap:butt;stroke-linejoin:miter;stroke-opacity:1"
       d="M 20.987,0.408 18.379084,1.1518992 21.014728,5.847491 23.548937,1.100192 Z"
       id="path4436"
       inkscape:connector-curvature="0"
       sodipodi:nodetypes="ccccc" />
    <path
       style="opacity:1;fill:#d38d5f;stroke:none;stroke-width:1px;stroke-linecap:butt;stroke-linejoin:miter;stroke-opacity:1"
       d="M 7.696,4.672 7.247822,7.591577 11.814079,9.127605 10.151497,3.9570645 Z"
       id="path4436-9"
       inkscape:connector-curvature="0"
       sodipodi:nodetypes="ccccc" />
    <path
       style="opacity:1;fill:#d38d5f;stroke:none;stroke-width:1px;stroke-linecap:butt;stroke-linejoin:miter;stroke-opacity:1"
       d="m 34.404,4.547 0.44818,2.919577 -4.56626,1.536028 1.579101,-5.25104 z"
       id="path4436-9-4"
       inkscape:connector-curvature="0"
       sodipodi:nodetypes="ccccc" />
    <path
       sodipodi:nodetypes="cccc"
       inkscape:connector-curvature="0"
       id="path6283"
       d="m 36.840386,20.718598 0.765489,5.186979 -5.66907,-2.121884 z"
       style="opacity:1;fill:#d38d5f;stroke:none;stroke-width:1px;stroke-linecap:butt;stroke-linejoin:miter;stroke-opacity:1" />
    <path
       style="opacity:1;fill:#d38d5f;stroke:none;stroke-width:1px;stroke-linecap:butt;stroke-linejoin:miter;stroke-opacity:1"
       d="m 5.0243921,21.507563 -0.7722553,5.053097 5.675832,-2.1469 z"
       id="path4436-9-3"
       inkscape:connector-curvature="0"
       sodipodi:nodetypes="cccc" />
    <path
       style="opacity:1;fill:#d38d5f;stroke:none;stroke-width:1px;stroke-linecap:butt;stroke-linejoin:miter;stroke-opacity:1"
       d="m 18.293421,49.304947 5.137157,0.04277 -2.810648,-5.341756 z"
       id="path4436-9-3-9"
       inkscape:connector-curvature="0"
       sodipodi:nodetypes="cccc" />
  </g>
</svg>
